symbols/web/sentiment_neutral/materialsymbolsoutlined/sentiment_neutral_wght100gradN25fill1_40px.svg

<svg xmlns="http://www.w3.org/2000/svg" height="40" width="40"><path d="M25.458 17.375q.667 0 1.125-.437.459-.438.459-1.146 0-.709-.459-1.167-.458-.458-1.125-.458-.708 0-1.146.458-.437.458-.437 1.167 0 .666.437 1.125.438.458 1.146.458Zm-10.916 0q.708 0 1.146-.437.437-.438.437-1.146 0-.709-.437-1.167-.438-.458-1.146-.458-.667 0-1.125.458-.459.458-.459 1.167 0 .666.459 1.125.458.458 1.125.458Zm.75 7.792h9.416v-1.042h-9.416ZM20 34.417q-3 0-5.625-1.125t-4.583-3.084q-1.959-1.958-3.084-4.583T5.583 20q0-3 1.125-5.625t3.084-4.583q1.958-1.959 4.583-3.084T20 5.583q3 0 5.625 1.125t4.583 3.084q1.959 1.958 3.084 4.583T34.417 20q0 3-1.125 5.625t-3.084 4.583q-1.958 1.959-4.583 3.084T20 34.417Z"/></svg>

<svg xmlns="http://www.w3.org/2000/svg" height="40" width="40"><path d="M25.458 17.375Q26.125 17.375 26.583 16.938Q27.042 16.5 27.042 15.792Q27.042 15.083 26.583 14.625Q26.125 14.167 25.458 14.167Q24.75 14.167 24.312 14.625Q23.875 15.083 23.875 15.792Q23.875 16.458 24.312 16.917Q24.75 17.375 25.458 17.375ZM14.542 17.375Q15.25 17.375 15.688 16.938Q16.125 16.5 16.125 15.792Q16.125 15.083 15.688 14.625Q15.25 14.167 14.542 14.167Q13.875 14.167 13.417 14.625Q12.958 15.083 12.958 15.792Q12.958 16.458 13.417 16.917Q13.875 17.375 14.542 17.375ZM15.292 25.167H24.708V24.125H15.292ZM20 34.417Q17 34.417 14.375 33.292Q11.75 32.167 9.792 30.208Q7.833 28.25 6.708 25.625Q5.583 23 5.583 20Q5.583 17 6.708 14.375Q7.833 11.75 9.792 9.792Q11.75 7.833 14.375 6.708Q17 5.583 20 5.583Q23 5.583 25.625 6.708Q28.25 7.833 30.208 9.792Q32.167 11.75 33.292 14.375Q34.417 17 34.417 20Q34.417 23 33.292 25.625Q32.167 28.25 30.208 30.208Q28.25 32.167 25.625 33.292Q23 34.417 20 34.417Z"/></svg>
